modules/hawcons-filled/icons/football.svg

<svg width="32" height="32" xmlns="http://www.w3.org/2000/svg"><path d="M20 17h-1v2h-1v-2h-1v2h-1v-2h-1v2h-1v-2h-1v2h-1v-2h-2v-1h2v-2h1v2h1v-2h1v2h1v-2h1v2h1v-2h1v2h1v-2h1v2h2v1h-2v2h-1v-2zm-3.5-8C7 9 3 16.5 3 16.5S7 24 16.5 24 30 16.5 30 16.5 26 9 16.5 9z" fill="#929292" fill-rule="evenodd"/></svg>

<?xml version="1.0" encoding="UTF-8" standalone="no"?>
<svg width="32px" height="32px" viewBox="0 0 32 32" version="1.1" xmlns="http://www.w3.org/2000/svg" xmlns:xlink="http://www.w3.org/1999/xlink" xmlns:sketch="http://www.bohemiancoding.com/sketch/ns">
    <!-- Generator: Sketch 3.0.3 (7891) - http://www.bohemiancoding.com/sketch -->
    <title>icon 9 football</title>
    <desc>Created with Sketch.</desc>
    <defs></defs>
    <g id="Page-1" stroke="none" stroke-width="1" fill="none" fill-rule="evenodd" sketch:type="MSPage">
        <g id="icon-9-football" sketch:type="MSArtboardGroup" fill="#929292">
            <path d="M20,17 L19,17 L19,19 L18,19 L18,17 L17,17 L17,19 L16,19 L16,17 L15,17 L15,19 L14,19 L14,17 L13,17 L13,19 L12,19 L12,17 L10,17 L10,16 L12,16 L12,14 L13,14 L13,16 L14,16 L14,16 L14,14 L15,14 L15,16 L16,16 L16,14 L17,14 L17,16 L18,16 L18,14 L19,14 L19,16 L20,16 L20,14 L21,14 L21,16 L23,16 L23,17 L21,17 L21,19 L20,19 L20,17 L20,17 Z M16.5,9 C7,9 3,16.5 3,16.5 C3,16.5 7,24 16.5,24 C26,24 30,16.5 30,16.5 C30,16.5 26,9 16.5,9 L16.5,9 Z" id="football" sketch:type="MSShapeGroup"></path>
        </g>
    </g>
</svg>
